X: 1
T: Curran's Fancy
R: reel
M: 4/4
L: 1/8
K: Dmaj
|:D2FA defd|B2cA BFAF|D2FA defd|ABAF AFEF|D2FA defd|B2cA BFAF|D2FA defd|1 ABAF A4:|2 ABAF A3a||
|:fdcd BAFA|AFEF e2de|fdcd BAFA|AFEF d3a|fdcd BAFA|AFEF e2de|fdcd BAFA|Acec d4:|

